X:1
T:The Lord Is Coming By and By
T:Elijah Albright Hoffman, 1891
T:The Lord Is Coming By and By
T:Public Domain
T:Public Domain
T:Public Domain
C:Elijah Albright Hoffman, 1891
Z:Public Domain
%%score ( 1 2 ) ( 3 4 )
L:1/8
M:4/4
K:G
V:1 treble 
V:2 treble 
V:3 bass 
V:4 bass 
V:1
 D2 | [DG]2 [DG]2 [DG]2 (G[FA]) | [GB]2 [GB]2 [GB]2 [DG]2 | [EA] [EA]3 [DG]2 [DF]2 | [DG]6 D2 | %5
w: 1.~The|is com- ing by *|by, Be read- y|when He comes; He|comes from|
w: 2.~He|will come to earth *|gain, Be read- y|when He comes; Be-|gin His|
w: 3.~Be-|He comes to one *|all, Be read- y|when He comes; He|quick- ly|
 [DG]2 [DG]2 [DG]2 (G[FA]) | [GB]2 [GB]2 [GB]2 [DG]2 | [EA] [EA]3 [DG]2 [DF]2 | [DG]6 [GB]2 | %9
w: fair home on high, *|read- y when He|comes; He is the|Lord our|
w: i- vers- al reign, *|read- y when He|comes; With hal- le-|lu- jahs|
w: with trump- et call, *|read- y when He|comes; To judg- ment|called at|
 [Gd]2 [Dd]2 [Gd]2 [GB]2 | [Ac]2 [Fc]2 [Ac]2 [FA]2 | [GB]2 ([GB][Ac]) [Bd]2 [GB]2 | %12
w: Right- eous- ness, And|comes His chos- en|ones to * bless, And|
w: heav’n will ring, When|Je- sus does re-|demp- tion * bring; O|
w: His com- mand, Drawn|thith- er by His|might- y * hand, Be-|
 [FA]2 [FA]2 [FA]2 D2 | [DG]2 [DG]2 [DG]2 (G[FA]) | [GB]2 [GB]2 [GB]2 [DG]2 | %15
w: at His Fa- ther’s|con- fess; Be read- *|when He comes. Will|
w: trim your lamps to|your King! Be read- *|when He comes. *|
w: fore His throne we|must stand; Be read- *|when He comes. *|
 [EA] [EA]3 [DG]2 [DF]2 | [DG]6 ||"^Refrain" (3DEF x | G<G [DG]>[DG] [DG]2 [GB]2 | [FA]6 (3DFG x | %20
w: you be read- y|when|the Bride- groom|be read- y when the Bride-|Will your lamps be|
w: |||||
w: |||||
 A<A [FA]>[FA] [FA]2 [Ac]2 | [GB]6 [GB][Gc] | [Gd][Gd] [Gd]>[Gd] [GB]2 [Gd]>[=Fd] | %23
w: Be it morn- ing, noon or|you be read-|y when the Bride- groom comes? *|
w: |||
w: |||
 [Ed][Ec] [Ec]>[Ec] [EG]2 (3G[GA][GB] | [EA]<[EA] [EA]>[EA] [DG]2 [DF]2 | [DG]6 |] %26
w: |||
w: |||
w: |||
V:2
 D2 | x6 G x | x8 | x8 | x6 D2 | x6 G x | x8 | x8 | x8 | x8 | x8 | x8 | x6 D2 | x6 G x | x8 | x8 | %16
w: Lord|and|||His|Be|||||||throne|y|||
w: soon|a-|||un-|Be|||||||meet|y|||
w: hold!|and|||comes|Be|||||||all|y|||
 x6 || DEF | G<G x6 | x6 DFG | A<A x6 | x8 | x8 | x6 G x | x8 | x6 |] %26
w: |comes? Will you|groom comes?|trimmed and bright,|night? Will||||||
w: ||||||||||
w: ||||||||||
V:3
 [G,B,]2 | [G,B,]2 [G,B,]2 [G,B,]2 (B,,C,) | [G,D]2 [G,D]2 [G,D]2 [G,B,]2 | %3
w: ~|~ ~ ~ ~ *|~ ~ ~ ~|
 [C,C] [C,C]3 [D,B,]2 [D,A,]2 | [G,B,]6 [G,B,]2 | [G,B,]2 [G,B,]2 [G,B,]2 (B,,C,) | %6
w: ~ ~ ~ ~|~ ~|~ ~ ~ ~ *|
 [G,D]2 [G,D]2 [G,D]2 [G,B,]2 | [C,C] [C,C]3 [D,B,]2 [D,A,]2 | [G,B,]6 [G,D]2 | %9
w: ~ ~ ~ ~|~ ~ ~ ~|~ ~|
 [G,B,]2 [G,B,]2 [G,B,]2 [G,D]2 | [D,D]2 [D,D]2 [D,D]2 [D,D]2 | [G,D]2 [G,D]2 [G,D]2 [G,D]2 | %12
w: ~ ~ ~ ~|~ ~ ~ ~|~ ~ ~ ~|
 [D,D]2 [D,D]2 [D,D]2 [F,C]2 | [G,B,]2 [G,B,]2 [G,B,]2 (B,,D,) | [G,D]2 [G,D]2 [G,D]2 [G,B,]2 | %15
w: ~ ~ ~ ~|~ ~ ~ ~ *|~ ~ ~ ~|
 [C,C] [C,C]3 [D,B,]2 [D,A,]2 | [G,B,]6 || (3D,E,F, x | G,<G, [G,B,]>[G,B,] [G,B,]2 [G,D]2 | %19
w: ~ ~ ~ ~|~|~ ~ ~|~ When He comes? ~ ~|
 [D,D]2 [D,D]>[D,D] [D,D]2 (3D,F,G, x | A,<A, [D,D]>[D,D] [D,D]2 [D,D]2 | %21
w: ~ ~ ~ ~ ~ ~ When||
 [G,D]2 [G,D]>[G,D] [G,D]2 G,[G,A,] | [G,B,][G,B,] [G,B,]>[G,B,] [G,D]2 [G,B,]>[G,B,] | %23
w: ||
 [C,G,][C,G,] [C,G,]>[C,G,] [C,G,]2 (3[C,D][C,D][C,D] | [C,C]<[C,C] [C,C]>[C,C] [D,B,]2 [D,A,]2 | %25
w: ||
 [G,B,]6 |] %26
w: |
V:4
 x2 | x6 D2 | x8 | x8 | x8 | x6 D2 | x8 | x8 | x8 | x8 | x8 | x8 | x8 | x6 D2 | x8 | x8 | x6 || %17
w: |~||||~||||||||~||||
 D,E,F, | G,<G, x6 | x6 D,F,G, | A,<A, x6 | x6 G, x | x8 | x8 | x8 | x6 |] %26
w: ~ ~ ~|~ ~|He comes? *|||||||

